X:6370
T:Sweeny's
O:england
M:2/4
L:1/8
C:Trad
R:Polka
K:G
B/c/B/A/ G G/E/|DG, B,D|CA, A>G |FEED |B/c/B/A/ GG/E/|DG, B,D|CA,
A>B|AG G2:|
E/|DB BA/B/|Dc c/B/c |DB B/A/B|A/B/A/G/ ED|DB B/A/B |Dc c>d |e
d cF|AG G2:|


